public/images/comcast.svg

<svg width="115" height="41" viewBox="0 0 115 41" fill="none" xmlns="http://www.w3.org/2000/svg">
<path d="M26.1501 15.9253C22.4158 15.9253 19.3673 12.8769 19.3673 9.14254C19.3673 5.40819 22.4158 2.35973 26.1501 2.35973C29.8845 2.35973 32.9329 5.40819 32.9329 9.14254C32.9139 12.8959 29.8845 15.9253 26.1501 15.9253ZM26.1501 0.721191C21.5012 0.721191 17.7097 4.5127 17.7097 9.16159C17.7097 13.8105 21.5012 17.602 26.1501 17.602C30.799 17.602 34.5905 13.8105 34.5905 9.16159C34.5905 4.5127 30.799 0.721191 26.1501 0.721191Z" fill="#343434"/>
<path d="M98.8936 9.25687C98.4363 9.02823 95.6927 7.59927 95.2926 7.38969C93.8446 6.64663 93.3302 5.99883 93.3302 4.89377C93.3302 3.35049 94.5877 2.35974 96.5501 2.35974C97.6933 2.35974 98.8174 2.85512 99.4652 3.23617C99.5795 3.29333 99.7319 3.33144 99.8653 3.33144C100.323 3.33144 100.704 2.96943 100.704 2.51217C100.704 2.20732 100.532 1.94058 100.284 1.78816C99.4652 1.33089 98.0743 0.702148 96.5692 0.702148C93.6922 0.702148 91.6916 2.4169 91.6916 4.89377C91.6916 7.1039 93.1396 8.1518 94.5686 8.87581C94.9687 9.08539 97.7504 10.5144 98.1696 10.743C99.2747 11.3146 99.8843 12.191 99.8843 13.1818C99.8843 14.5154 98.7602 15.9254 96.6644 15.9254C94.6258 15.9254 93.0444 14.5536 92.6252 14.1344L92.4919 14.001L91.2534 15.1251L91.4058 15.2585C91.9584 15.792 93.9399 17.5639 96.6644 17.5639C99.7129 17.5639 101.542 15.3157 101.542 13.1436C101.523 11.5623 100.57 10.1333 98.8936 9.25687Z" fill="#343434"/>
<path d="M8.85006 2.37879C10.6601 2.37879 12.3558 3.08374 13.6514 4.36028C13.9562 4.66512 14.5278 4.66512 14.8326 4.36028C14.9851 4.20786 15.0803 3.99828 15.0803 3.76964C15.0803 3.54101 15.0041 3.33143 14.8326 3.179L14.7374 3.08374C13.156 1.55951 11.0792 0.721191 8.86911 0.721191C4.22022 0.721191 0.428711 4.5127 0.428711 9.16159C0.428711 13.8105 4.22022 17.602 8.86911 17.602C11.3269 17.602 13.5371 16.5541 15.0803 14.8584L13.8991 13.6771C12.6606 15.0489 10.8506 15.9253 8.86911 15.9253C5.13476 15.9253 2.08631 12.8769 2.08631 9.14254C2.06725 5.42724 5.11571 2.37879 8.85006 2.37879Z" fill="#343434"/>
<path d="M66.0466 2.37879C67.8566 2.37879 69.5523 3.08374 70.8289 4.36028C71.1337 4.66512 71.7053 4.66512 72.0101 4.36028C72.1626 4.20786 72.2578 3.99828 72.2578 3.76964C72.2578 3.54101 72.1626 3.33143 72.0101 3.179L71.9149 3.08374C70.3335 1.55951 68.2567 0.721191 66.0466 0.721191C61.3977 0.721191 57.6062 4.5127 57.6062 9.16159C57.6062 13.8105 61.3977 17.602 66.0466 17.602C68.5044 17.602 70.7145 16.5541 72.2578 14.8584L71.0765 13.6771C69.8381 15.0489 68.0471 15.9253 66.0466 15.9253C62.3122 15.9253 59.2638 12.8769 59.2638 9.14254C59.2638 5.42724 62.3122 2.37879 66.0466 2.37879Z" fill="#343434"/>
<path d="M51.757 0.721191C51.4521 0.721191 51.2044 0.930771 51.0711 1.17846C50.9377 1.4452 46.0983 13.3723 46.0983 13.3723C46.0983 13.3723 41.2589 1.42614 41.1255 1.17846C40.9921 0.911718 40.7444 0.721191 40.4396 0.721191C40.0776 0.721191 39.7918 0.98793 39.6965 1.33088C39.6013 1.67383 36.8767 16.7065 36.8767 16.7065C36.8767 16.7637 36.8577 16.8018 36.8577 16.8589C36.8577 17.2781 37.2006 17.602 37.6007 17.602C37.9627 17.602 38.2676 17.3353 38.3438 16.9923L40.7063 4.13165C40.7063 4.13165 45.26 15.3728 45.3933 15.6396C45.5267 15.9063 45.7744 16.1159 46.0983 16.1159C46.4031 16.1159 46.6699 15.9063 46.8032 15.6396C46.9366 15.3728 51.4902 4.13165 51.4902 4.13165L53.948 17.5067H55.4723C55.4723 17.5067 52.5953 1.67383 52.5 1.33088C52.3857 0.98793 52.119 0.721191 51.757 0.721191Z" fill="#343434"/>
<path d="M79.2504 9.61886L81.7654 3.44575L84.2803 9.61886H79.2504ZM81.7463 0.721191C81.4224 0.721191 81.1938 0.930772 81.0413 1.19751C80.908 1.46425 74.792 16.5541 74.792 16.5541C74.7539 16.6493 74.7349 16.7446 74.7349 16.8399C74.7349 17.259 75.0588 17.5829 75.4779 17.5829C75.8018 17.5829 76.0686 17.3924 76.1829 17.1066L78.5645 11.2765H84.9472L87.4812 17.4877H89.1007C89.1007 17.4877 82.6037 1.4452 82.4703 1.17846C82.3179 0.930771 82.0702 0.721191 81.7463 0.721191Z" fill="#343434"/>
<path d="M114.593 1.63569C114.593 1.17842 114.212 0.797363 113.755 0.797363H104.381C103.924 0.797363 103.543 1.15937 103.543 1.63569C103.543 2.09296 103.905 2.45496 104.381 2.45496H108.325V17.4876H109.849V2.45496H113.774C114.231 2.47401 114.593 2.09296 114.593 1.63569Z" fill="#343434"/>
<path d="M50.8806 23.2603C50.0423 23.2603 49.5278 23.8509 49.5278 24.5749V40.1411H52.2333V24.5749C52.2333 23.8509 51.7189 23.2603 50.8806 23.2603Z" fill="#343434"/>
<path d="M20.1865 33.4726V24.5749C20.1865 23.8509 19.653 23.2603 18.8337 23.2603C17.9954 23.2603 17.481 23.8509 17.481 24.5749V33.3773C17.481 37.1498 20.1293 40.2173 24.3781 40.2173C28.6078 40.2173 31.2752 37.1498 31.2752 33.3773V23.3365H28.5506V33.4535C28.5506 35.6827 27.0645 37.6642 24.3781 37.6642C21.6726 37.6832 20.1865 35.7017 20.1865 33.4726Z" fill="#343434"/>
<path d="M85.7089 26.0043C86.6044 26.0043 87.1379 25.4327 87.1379 24.6896C87.1379 23.9466 86.5854 23.375 85.7089 23.375H77.421C76.6589 23.375 76.1063 23.9275 76.1063 24.6896V38.8649C76.1063 39.608 76.6589 40.1605 77.421 40.1605H87.0426V37.5312H78.8118V32.6537H85.023C85.9566 32.6537 86.4901 32.1012 86.4901 31.3391C86.4901 30.577 85.9757 30.0244 85.023 30.0244H78.8118V26.0043H85.7089Z" fill="#343434"/>
<path d="M8.43096 37.5503H4.20123V32.5394H8.43096C10.3743 32.5394 11.3079 33.6635 11.3079 35.0544C11.3079 36.4262 10.3362 37.5503 8.43096 37.5503ZM4.20123 25.9853H8.25948C9.78371 25.9853 10.5268 26.8998 10.5268 28.0239C10.5268 29.148 9.70749 30.0626 8.25948 30.0626H4.20123V25.9853ZM11.5747 31.0533C12.0319 30.7675 13.2704 29.7958 13.2704 27.6047C13.2704 25.0326 11.4222 23.3369 8.60243 23.3369H2.81037C2.02921 23.3369 1.49573 23.8704 1.49573 24.6516V40.1225H8.94538C11.9557 40.1225 14.0515 37.9314 14.0515 35.1116C14.0515 32.1393 12.051 31.2819 11.5747 31.0533Z" fill="#343434"/>
<path d="M58.9209 23.2603C58.1016 23.2603 57.5681 23.8509 57.5681 24.5558V38.9217C57.5681 39.6457 58.1969 40.2173 58.9209 40.2173C59.6258 40.2173 60.2546 39.6457 60.2546 38.9217V28.5569C60.2546 28.5569 66.8468 36.9783 68.5807 39.2075C69.0189 39.76 69.3237 40.2363 70.1049 40.2363C70.886 40.2363 71.4195 39.6647 71.4195 38.9407V23.3746H68.7521V34.9968C68.7521 34.9968 61.4168 25.5847 60.3879 24.2701C59.9116 23.6604 59.5496 23.2603 58.9209 23.2603Z" fill="#343434"/>
<path d="M34.4189 37.7404C34.7619 38.1786 36.3433 40.2363 39.8299 40.2363C43.2595 40.2363 45.5839 38.2739 45.5839 35.5112C45.5839 33.7012 44.8789 32.2532 42.1925 30.9576C41.4685 30.6146 39.4679 29.6429 39.4679 29.6429C38.401 29.1285 37.9247 28.5188 37.9247 27.6805C37.9247 26.8041 38.6487 25.8514 40.4206 25.8514C41.4304 25.8514 42.2116 26.1753 42.6117 26.3659C42.8212 26.4611 43.2976 26.6898 43.7548 26.6898C44.3455 26.6898 44.9933 26.2706 44.9933 25.4132C44.9933 24.6892 44.4788 24.3082 44.0216 24.0986C43.2976 23.7556 42.1734 23.2603 40.2872 23.2603C37.2959 23.2603 35.0858 25.1465 35.0858 27.7758C35.0858 30.1764 36.7053 31.3768 38.6487 32.3103C39.0107 32.4818 40.4587 33.1868 40.8588 33.3773C42.0972 33.9679 42.745 34.5395 42.745 35.5684C42.745 36.6925 41.6971 37.6261 40.1157 37.6261C37.8485 37.6261 36.6291 36.14 36.4195 35.8923L34.4189 37.7404Z" fill="#343434"/>
<path d="M89.8246 37.7404C90.1675 38.1786 91.768 40.2363 95.2546 40.2363C98.6651 40.2363 100.99 38.2739 100.99 35.5112C100.99 33.7012 100.285 32.2532 97.5981 30.9576C96.8932 30.6146 94.8736 29.6429 94.8736 29.6429C93.8066 29.1285 93.3303 28.5188 93.3303 27.6805C93.3303 26.8041 94.0543 25.8514 95.8262 25.8514C96.836 25.8514 97.5981 26.1753 98.0173 26.3659C98.2269 26.4611 98.7032 26.6898 99.1605 26.6898C99.7511 26.6898 100.399 26.2706 100.399 25.4132C100.399 24.6892 99.8845 24.3082 99.4272 24.0986C98.7032 23.7556 97.56 23.2603 95.6929 23.2603C92.7016 23.2603 90.4914 25.1465 90.4914 27.7758C90.4914 30.1764 92.1109 31.3768 94.0543 32.3103C94.4354 32.4818 95.8834 33.1868 96.2835 33.3773C97.5029 33.9679 98.1507 34.5395 98.1507 35.5684C98.1507 36.6925 97.1028 37.6261 95.5214 37.6261C93.235 37.6261 92.0347 36.14 91.8251 35.8923L89.8246 37.7404Z" fill="#343434"/>
<path d="M103.562 37.7404C103.905 38.1786 105.486 40.2363 108.973 40.2363C112.383 40.2363 114.727 38.2739 114.727 35.5112C114.727 33.7012 114.003 32.2532 111.335 30.9576C110.611 30.6146 108.592 29.6429 108.592 29.6429C107.544 29.1285 107.067 28.5188 107.067 27.6805C107.067 26.8041 107.791 25.8514 109.544 25.8514C110.554 25.8514 111.335 26.1753 111.754 26.3659C111.945 26.4611 112.421 26.6898 112.878 26.6898C113.469 26.6898 114.117 26.2706 114.117 25.4132C114.117 24.6892 113.602 24.3082 113.145 24.0986C112.421 23.7556 111.297 23.2603 109.411 23.2603C106.42 23.2603 104.209 25.1465 104.209 27.7758C104.209 30.1764 105.81 31.3768 107.772 32.3103C108.134 32.4818 109.582 33.1868 109.982 33.3773C111.221 33.9679 111.869 34.5395 111.869 35.5684C111.869 36.6925 110.821 37.6261 109.239 37.6261C106.972 37.6261 105.753 36.14 105.543 35.8923L103.562 37.7404Z" fill="#343434"/>
</svg>

<svg width="115" height="41" fill="none" xmlns="http://www.w3.org/2000/svg"><path d="M26.15 15.925c-3.734 0-6.783-3.048-6.783-6.782 0-3.735 3.049-6.783 6.783-6.783 3.735 0 6.783 3.048 6.783 6.783-.02 3.753-3.049 6.782-6.783 6.782Zm0-15.204c-4.649 0-8.44 3.792-8.44 8.44 0 4.65 3.791 8.441 8.44 8.441 4.649 0 8.44-3.792 8.44-8.44 0-4.65-3.791-8.44-8.44-8.44ZM98.894 9.257c-.458-.229-3.201-1.658-3.601-1.867-1.448-.743-1.963-1.391-1.963-2.496 0-1.544 1.258-2.534 3.22-2.534 1.143 0 2.267.495 2.915.876a.95.95 0 0 0 .4.095.83.83 0 0 0 .839-.819.857.857 0 0 0-.42-.724c-.819-.457-2.21-1.086-3.715-1.086-2.877 0-4.877 1.715-4.877 4.192 0 2.21 1.448 3.258 2.877 3.982.4.21 3.181 1.638 3.6 1.867 1.106.572 1.715 1.448 1.715 2.439 0 1.333-1.124 2.743-3.22 2.743-2.038 0-3.62-1.371-4.039-1.79L92.492 14l-1.239 1.124.153.133c.552.534 2.534 2.306 5.258 2.306 3.049 0 4.878-2.248 4.878-4.42-.019-1.582-.972-3.01-2.648-3.887ZM8.85 2.379c1.81 0 3.506.705 4.801 1.981.305.305.877.305 1.182 0a.836.836 0 0 0 .247-.59.764.764 0 0 0-.247-.591l-.096-.095A8.4 8.4 0 0 0 8.87.72C4.22.721.43 4.513.43 9.161c0 4.65 3.791 8.441 8.44 8.441a8.36 8.36 0 0 0 6.211-2.744l-1.18-1.18a6.795 6.795 0 0 1-5.03 2.247c-3.735 0-6.784-3.048-6.784-6.782-.019-3.716 3.03-6.764 6.764-6.764ZM66.047 2.379c1.81 0 3.505.705 4.782 1.981.305.305.876.305 1.181 0a.836.836 0 0 0 .248-.59.836.836 0 0 0-.248-.591l-.095-.095A8.4 8.4 0 0 0 66.047.72c-4.65 0-8.44 3.792-8.44 8.44 0 4.65 3.79 8.441 8.44 8.441a8.36 8.36 0 0 0 6.21-2.744l-1.18-1.18a6.763 6.763 0 0 1-5.03 2.247c-3.735 0-6.783-3.048-6.783-6.782 0-3.716 3.048-6.764 6.783-6.764ZM51.757.721c-.305 0-.553.21-.686.457-.133.267-4.973 12.194-4.973 12.194s-4.84-11.946-4.972-12.194c-.134-.266-.382-.457-.686-.457-.362 0-.648.267-.743.61-.096.343-2.82 15.375-2.82 15.375 0 .058-.02.096-.02.153 0 .42.344.743.744.743a.774.774 0 0 0 .743-.61l2.362-12.86s4.554 11.24 4.687 11.508c.134.266.381.476.705.476.305 0 .572-.21.705-.476.134-.267 4.687-11.508 4.687-11.508l2.458 13.375h1.524S52.595 1.674 52.5 1.33c-.114-.343-.381-.61-.743-.61ZM79.25 9.619l2.515-6.173 2.515 6.173h-5.03ZM81.746.72c-.324 0-.552.21-.705.477-.133.266-6.249 15.356-6.249 15.356a.764.764 0 0 0-.057.286c0 .419.324.743.743.743.324 0 .59-.19.705-.476l2.381-5.83h6.383l2.534 6.21h1.62S82.604 1.446 82.47 1.179c-.153-.247-.4-.457-.725-.457ZM114.593 1.636a.846.846 0 0 0-.838-.839h-9.374a.833.833 0 0 0-.838.839c0 .457.362.819.838.819h3.944v15.033h1.524V2.455h3.925c.457.019.819-.362.819-.82ZM50.88 23.26c-.838 0-1.352.59-1.352 1.315V40.14h2.705V24.575c0-.724-.514-1.315-1.352-1.315ZM20.186 33.473v-8.898c0-.724-.533-1.315-1.352-1.315-.839 0-1.353.59-1.353 1.315v8.802c0 3.773 2.648 6.84 6.897 6.84 4.23 0 6.897-3.067 6.897-6.84v-10.04h-2.724v10.116c0 2.23-1.486 4.211-4.173 4.211-2.705.02-4.192-1.962-4.192-4.191ZM85.709 26.004c.895 0 1.429-.571 1.429-1.314 0-.743-.553-1.315-1.43-1.315h-8.287c-.762 0-1.315.552-1.315 1.315v14.175c0 .743.553 1.295 1.315 1.295h9.622v-2.629h-8.231v-4.877h6.211c.934 0 1.467-.553 1.467-1.315 0-.762-.514-1.315-1.467-1.315h-6.211v-4.02h6.897ZM8.431 37.55h-4.23v-5.01h4.23c1.943 0 2.877 1.123 2.877 2.514 0 1.372-.972 2.496-2.877 2.496Zm-4.23-11.565H8.26c1.525 0 2.268.915 2.268 2.039s-.82 2.039-2.268 2.039H4.201v-4.078Zm7.374 5.068c.457-.286 1.695-1.257 1.695-3.448 0-2.572-1.848-4.268-4.668-4.268H2.81c-.78 0-1.314.533-1.314 1.315v15.47h7.45c3.01 0 5.106-2.19 5.106-5.01 0-2.973-2.001-3.83-2.477-4.059ZM58.92 23.26c-.818 0-1.352.59-1.352 1.296v14.366c0 .724.629 1.295 1.353 1.295.705 0 1.334-.571 1.334-1.295V28.557s6.592 8.421 8.326 10.65c.438.553.743 1.03 1.524 1.03s1.314-.572 1.314-1.296V23.375h-2.667v11.622s-7.335-9.412-8.364-10.727c-.476-.61-.838-1.01-1.467-1.01ZM34.419 37.74c.343.439 1.924 2.496 5.41 2.496 3.43 0 5.755-1.962 5.755-4.725 0-1.81-.705-3.258-3.392-4.553-.724-.343-2.724-1.315-2.724-1.315-1.067-.515-1.543-1.124-1.543-1.963 0-.876.724-1.829 2.496-1.829 1.01 0 1.79.324 2.19.515.21.095.687.324 1.144.324.59 0 1.238-.42 1.238-1.277 0-.724-.514-1.105-.971-1.314-.724-.343-1.849-.839-3.735-.839-2.991 0-5.201 1.886-5.201 4.516 0 2.4 1.62 3.6 3.563 4.534.362.172 1.81.877 2.21 1.067 1.238.59 1.886 1.162 1.886 2.191 0 1.125-1.048 2.058-2.63 2.058-2.267 0-3.486-1.486-3.696-1.734l-2 1.848ZM89.825 37.74c.343.439 1.943 2.496 5.43 2.496 3.41 0 5.735-1.962 5.735-4.725 0-1.81-.705-3.258-3.392-4.553-.705-.343-2.724-1.315-2.724-1.315-1.067-.515-1.544-1.124-1.544-1.963 0-.876.724-1.829 2.496-1.829 1.01 0 1.772.324 2.191.515.21.095.686.324 1.144.324.59 0 1.238-.42 1.238-1.277 0-.724-.514-1.105-.972-1.314-.724-.343-1.867-.839-3.734-.839-2.991 0-5.202 1.886-5.202 4.516 0 2.4 1.62 3.6 3.563 4.534.381.172 1.83.877 2.23 1.067 1.219.59 1.867 1.162 1.867 2.191 0 1.125-1.048 2.058-2.63 2.058-2.286 0-3.486-1.486-3.696-1.734l-2 1.848ZM103.562 37.74c.343.439 1.924 2.496 5.411 2.496 3.41 0 5.754-1.962 5.754-4.725 0-1.81-.724-3.258-3.392-4.553-.724-.343-2.743-1.315-2.743-1.315-1.048-.515-1.525-1.124-1.525-1.963 0-.876.724-1.829 2.477-1.829 1.01 0 1.791.324 2.21.515.191.095.667.324 1.124.324.591 0 1.239-.42 1.239-1.277 0-.724-.515-1.105-.972-1.314-.724-.343-1.848-.839-3.734-.839-2.991 0-5.202 1.886-5.202 4.516 0 2.4 1.601 3.6 3.563 4.534.362.172 1.81.877 2.21 1.067 1.239.59 1.887 1.162 1.887 2.191 0 1.125-1.048 2.058-2.63 2.058-2.267 0-3.486-1.486-3.696-1.734l-1.981 1.848Z" fill="#fff"/></svg>
